X: 21
T:General Monk's March, Bledington 1
M:2/2
L:1/8
S:Benfield
A:Bledington
P:A(AB)4A
K:G
P:A
|:G2 G>B A2A>c|B2 g>e d2c2|Bd BG  AB cA |1G2 G>A G2D2:|G2G>A G4||
P:B
|:d>ed>c B2B2 |c>dc>B A2A2|d>ed>c B2 B2 | c>de>c A4   |
  G2 G>B A2A>c|B2 g>e d2c2|B>dB>G A>Bc>A| G2 G>A G4  :|

